X: 31531
T: Paddy's Rambles Through The Park
R: waltz
M: 3/4
K: Adorian
"Slow" A/G/F/G/|[A,2E2] [E2A2] [E2A2]|G2 B2 {Bc}BA|G4
AG|[A,2E2] [E2A2] [EA]B|{d}c4 {Bc}BA|^G E3 [E2B,2]|[B,4E4]||
^cd|e2 {f}ed ^c<e|d2 {e}d^c Bd|^c2 {d}cB Ac|B4
EF|G3 B e^c|d3 e f^d|e2 E2 ^G2|[E4A4]||
"Variation" [A,2E2]|[E2A2] a2 a2|[M:4/4] A2 g2 g2 BA|[M:3/4] {c}B G3 G2|G4
B_B|A2 a2 a2|[M:4/4] A2 g2 g2 BA|[M:3/4] ^G E3 [B,2E2]|"etc"[B,4E4]||

